icons/Document/newspaper-fill.svg

<svg viewBox="0 0 24 24" xmlns="http://www.w3.org/2000/svg"><path d="M19 22H5C3.34315 22 2 20.6569 2 19V3C2 2.44772 2.44772 2 3 2H17C17.5523 2 18 2.44772 18 3V10H22V19C22 20.6569 20.6569 22 19 22ZM18 12V19C18 19.5523 18.4477 20 19 20C19.5523 20 20 19.5523 20 19V12H18ZM5 6V12H11V6H5ZM5 13V15H15V13H5ZM5 16V18H15V16H5ZM7 8H9V10H7V8Z"/></svg>

<svg xmlns="http://www.w3.org/2000/svg" viewBox="0 0 24 24">
    <g>
        <path fill="none" d="M0 0h24v24H0z"/>
        <path d="M19 22H5a3 3 0 0 1-3-3V3a1 1 0 0 1 1-1h14a1 1 0 0 1 1 1v7h4v9a3 3 0 0 1-3 3zm-1-10v7a1 1 0 0 0 2 0v-7h-2zM5 6v6h6V6H5zm0 7v2h10v-2H5zm0 3v2h10v-2H5zm2-8h2v2H7V8z"/>
    </g>
</svg>
